X:539
T:Snow Deer
L:1/8
M:C|
S:Viola "Mom" Ruth - Pioneer Western Folk Tunes (1948)
K:Cmaj
z2G,2C2D2||"C"E2 ED E2 ED|E2C2B,2C2|"D"D2 DE D2DE|D2C2B,2A,2|
"G"G,4(D4|D2)B,2A,2_A,2|"C"G,4(E4|E2)G,2C2D2|E2 ED E2ED|
E2C2B,2C2|"D"D2DE D2DE|D2C2B,2A,2|"G"G,4(D4|D2)^C2D2E2|
"C"(=C8|C2)C2D2E2||"F"F4(A,4|A,2)C2B,2A,2|"C"G,4(E4|E4)E3F|"G7"E2D2D2^C2|
D4D3E|"C"D2C2C2B,2|"C7"C2C2D2E2|"F"F4(A,4|A,2)C2B,2A,2|"C"G,4(E4|
E4)E3F|"G7"E2D2D2^C2|D2F2E2D2| [1"C"(C8|C2)G,2C2D2:|| [2"C"(C8|C2)z4||

